symbols/web/pause_presentation/materialsymbolsrounded/pause_presentation_wght300grad200_40px.svg

<svg xmlns="http://www.w3.org/2000/svg" height="40" width="40"><path d="M16.708 26.667q.584 0 1-.417.417-.417.417-1V14.708q0-.583-.417-.979-.416-.396-1-.396-.583 0-1 .396-.416.396-.416.979V25.25q0 .583.437 1 .438.417.979.417Zm6.584 0q.583 0 1-.417.416-.417.416-1V14.708q0-.583-.416-.979-.417-.396-1-.396-.584 0-1 .396-.417.396-.417.979V25.25q0 .583.417 1 .416.417 1 .417Zm-16.5 6.5q-1.375 0-2.354-.979-.98-.98-.98-2.355V10.167q0-1.375.98-2.354.979-.98 2.354-.98h26.416q1.375 0 2.354.98.98.979.98 2.354v19.666q0 1.375-.98 2.355-.979.979-2.354.979Zm0-2.834q-.25 0-.396-.145-.146-.146-.146-.355V10.167q0-.209.146-.354.146-.146.396-.146-.25 0-.396.146-.146.145-.146.354v19.666q0 .209.146.355.146.145.396.145Zm0 0h26.416q.25 0 .396-.145.146-.146.146-.355V10.167q0-.209-.146-.354-.146-.146-.396-.146H6.792q-.25 0-.396.146-.146.145-.146.354v19.666q0 .209.146.355.146.145.396.145Z"/></svg>

<svg xmlns="http://www.w3.org/2000/svg" height="40" width="40"><path d="M16.708 26.667Q17.292 26.667 17.708 26.25Q18.125 25.833 18.125 25.25V14.708Q18.125 14.125 17.708 13.729Q17.292 13.333 16.708 13.333Q16.125 13.333 15.708 13.729Q15.292 14.125 15.292 14.708V25.25Q15.292 25.833 15.729 26.25Q16.167 26.667 16.708 26.667ZM23.292 26.667Q23.875 26.667 24.292 26.25Q24.708 25.833 24.708 25.25V14.708Q24.708 14.125 24.292 13.729Q23.875 13.333 23.292 13.333Q22.708 13.333 22.292 13.729Q21.875 14.125 21.875 14.708V25.25Q21.875 25.833 22.292 26.25Q22.708 26.667 23.292 26.667ZM6.792 33.167Q5.417 33.167 4.438 32.188Q3.458 31.208 3.458 29.833V10.167Q3.458 8.792 4.438 7.813Q5.417 6.833 6.792 6.833H33.208Q34.583 6.833 35.562 7.813Q36.542 8.792 36.542 10.167V29.833Q36.542 31.208 35.562 32.188Q34.583 33.167 33.208 33.167ZM6.792 30.333Q6.542 30.333 6.396 30.188Q6.25 30.042 6.25 29.833V10.167Q6.25 9.958 6.396 9.813Q6.542 9.667 6.792 9.667Q6.542 9.667 6.396 9.813Q6.25 9.958 6.25 10.167V29.833Q6.25 30.042 6.396 30.188Q6.542 30.333 6.792 30.333ZM6.792 30.333H33.208Q33.458 30.333 33.604 30.188Q33.75 30.042 33.75 29.833V10.167Q33.75 9.958 33.604 9.813Q33.458 9.667 33.208 9.667H6.792Q6.542 9.667 6.396 9.813Q6.25 9.958 6.25 10.167V29.833Q6.25 30.042 6.396 30.188Q6.542 30.333 6.792 30.333Z"/></svg>
